assets/images/icons/src/commenting.svg

<?xml version="1.0" encoding="utf-8"?>
<!-- Generated by IcoMoon.io -->
<!DOCTYPE svg PUBLIC "-//W3C//DTD SVG 1.1//EN" "http://www.w3.org/Graphics/SVG/1.1/DTD/svg11.dtd">
<svg version="1.1" xmlns="http://www.w3.org/2000/svg" xmlns:xlink="http://www.w3.org/1999/xlink" width="14" height="14" viewBox="0 0 14 14">
<path fill="#444444" d="M5 7q0-0.414-0.293-0.707t-0.707-0.293-0.707 0.293-0.293 0.707 0.293 0.707 0.707 0.293 0.707-0.293 0.293-0.707zM8 7q0-0.414-0.293-0.707t-0.707-0.293-0.707 0.293-0.293 0.707 0.293 0.707 0.707 0.293 0.707-0.293 0.293-0.707zM11 7q0-0.414-0.293-0.707t-0.707-0.293-0.707 0.293-0.293 0.707 0.293 0.707 0.707 0.293 0.707-0.293 0.293-0.707zM14 7q0 1.359-0.937 2.512t-2.547 1.82-3.516 0.668q-0.859 0-1.648-0.141-1.352 1.352-3.398 1.789-0.406 0.078-0.672 0.102-0.094 0.008-0.172-0.047t-0.102-0.141q-0.031-0.117 0.156-0.289 0.039-0.039 0.184-0.168t0.199-0.184 0.184-0.199 0.187-0.246 0.16-0.289 0.156-0.375 0.113-0.449 0.098-0.566q-1.141-0.703-1.793-1.691t-0.652-2.105q0-1.359 0.937-2.512t2.547-1.82 3.516-0.668 3.516 0.668 2.547 1.82 0.937 2.512z"></path>
</svg>

<svg xmlns="http://www.w3.org/2000/svg" width="14" height="14" viewBox="0 0 14 14"><path fill="#444" d="M5 7q0-.414-.293-.707T4 6t-.707.293T3 7t.293.707T4 8t.707-.293T5 7zm3 0q0-.414-.293-.707T7 6t-.707.293T6 7t.293.707T7 8t.707-.293T8 7zm3 0q0-.414-.293-.707T10 6t-.707.293T9 7t.293.707T10 8t.707-.293T11 7zm3 0q0 1.359-.937 2.512t-2.547 1.82T7 12q-.859 0-1.648-.141Q4 13.211 1.954 13.648q-.406.078-.672.102-.094.008-.172-.047t-.102-.141q-.031-.117.156-.289.039-.039.184-.168t.199-.184.184-.199.187-.246.16-.289.156-.375.113-.449.098-.566Q1.304 10.094.652 9.106T0 7.001q0-1.359.937-2.512t2.547-1.82T7 2.001t3.516.668 2.547 1.82T14 7.001z"/></svg>
